dist/svg/security-fill.svg

<svg xmlns="http://www.w3.org/2000/svg" viewBox="0 0 24 24"><path d="M11.445 2.462c-.292.063-5.741 2.226-6.225 2.471-.553.28-1.081.88-1.298 1.478-.164.453-.169.551-.152 3.169.017 2.781.021 2.833.291 3.886.351 1.371 1.056 2.758 2.026 3.983.445.563 1.627 1.735 2.233 2.215 1.033.818 2.262 1.57 2.94 1.798.453.152.986.152 1.437.001 1.102-.372 3.271-1.935 4.454-3.212 1.693-1.826 2.563-3.481 2.976-5.66.08-.424.086-.605.102-2.991.019-2.661.014-2.752-.159-3.2-.239-.621-.736-1.187-1.29-1.467-.514-.26-5.937-2.408-6.243-2.473a2.8 2.8 0 0 0-1.092.002M12.7 7.344c.868.206 1.631.933 1.928 1.836.091.277.105.388.105.82 0 .433-.014.543-.105.82a3.5 3.5 0 0 1-.257.575c-.296.498-.868.985-1.378 1.171l-.233.085v1.704c0 1.05-.016 1.762-.042 1.854a.747.747 0 0 1-.92.51c-.22-.059-.454-.287-.513-.5-.029-.104-.045-.743-.045-1.864v-1.704l-.233-.085c-.51-.186-1.082-.673-1.378-1.171a3.5 3.5 0 0 1-.257-.575c-.091-.277-.105-.387-.105-.82s.014-.543.105-.82a3.6 3.6 0 0 1 .257-.576c.185-.314.642-.777.946-.959.616-.369 1.384-.478 2.125-.301M11.586 8.82a1.4 1.4 0 0 0-.607.478c-.571.804.027 1.942 1.021 1.942.474 0 .913-.277 1.127-.711.133-.27.133-.787 0-1.057a1.4 1.4 0 0 0-.599-.599c-.234-.114-.71-.141-.942-.053"/></svg>

<svg fill="none" xmlns="http://www.w3.org/2000/svg" viewBox="0 0 24 24"><path d="M11.445 2.462 C 11.153 2.525,5.704 4.688,5.220 4.933 C 4.667 5.213,4.139 5.813,3.922 6.411 C 3.758 6.864,3.753 6.962,3.770 9.580 C 3.787 12.361,3.791 12.413,4.061 13.466 C 4.412 14.837,5.117 16.224,6.087 17.449 C 6.532 18.012,7.714 19.184,8.320 19.664 C 9.353 20.482,10.582 21.234,11.260 21.462 C 11.713 21.614,12.246 21.614,12.697 21.463 C 13.799 21.091,15.968 19.528,17.151 18.251 C 18.844 16.425,19.714 14.770,20.127 12.591 C 20.207 12.167,20.213 11.986,20.229 9.600 C 20.248 6.939,20.243 6.848,20.070 6.400 C 19.831 5.779,19.334 5.213,18.780 4.933 C 18.266 4.673,12.843 2.525,12.537 2.460 C 12.196 2.388,11.782 2.388,11.445 2.462 M12.700 7.344 C 13.568 7.550,14.331 8.277,14.628 9.180 C 14.719 9.457,14.733 9.568,14.733 10.000 C 14.733 10.433,14.719 10.543,14.628 10.820 C 14.570 10.996,14.454 11.255,14.371 11.395 C 14.075 11.893,13.503 12.380,12.993 12.566 L 12.760 12.651 12.760 14.355 C 12.760 15.405,12.744 16.117,12.718 16.209 C 12.610 16.599,12.198 16.827,11.798 16.719 C 11.578 16.660,11.344 16.432,11.285 16.219 C 11.256 16.115,11.240 15.476,11.240 14.355 L 11.240 12.651 11.007 12.566 C 10.497 12.380,9.925 11.893,9.629 11.395 C 9.546 11.255,9.430 10.996,9.372 10.820 C 9.281 10.543,9.267 10.433,9.267 10.000 C 9.267 9.567,9.281 9.457,9.372 9.180 C 9.430 9.004,9.546 8.745,9.629 8.604 C 9.814 8.290,10.271 7.827,10.575 7.645 C 11.191 7.276,11.959 7.167,12.700 7.344 M11.586 8.820 C 11.363 8.905,11.126 9.091,10.979 9.298 C 10.408 10.102,11.006 11.240,12.000 11.240 C 12.474 11.240,12.913 10.963,13.127 10.529 C 13.260 10.259,13.260 9.742,13.127 9.472 C 13.009 9.232,12.767 8.990,12.528 8.873 C 12.294 8.759,11.818 8.732,11.586 8.820 " stroke="none" fill-rule="evenodd"/></svg>
